src/assets/svg/icons/fa/nuevos/classic/thin/lock-hashtag classic thin.svg

<svg xmlns="http://www.w3.org/2000/svg" viewBox="0 0 448 512"><!--! Font Awesome Pro 6.4.0 by @fontawesome - https://fontawesome.com License - https://fontawesome.com/license (Commercial License) Copyright 2023 Fonticons, Inc. --><path d="M112 128v64H336V128c0-61.9-50.1-112-112-112s-112 50.1-112 112zM96 192V128C96 57.3 153.3 0 224 0s128 57.3 128 128v64h32c35.3 0 64 28.7 64 64V448c0 35.3-28.7 64-64 64H64c-35.3 0-64-28.7-64-64V256c0-35.3 28.7-64 64-64H96zm0 16H64c-26.5 0-48 21.5-48 48V448c0 26.5 21.5 48 48 48H384c26.5 0 48-21.5 48-48V256c0-26.5-21.5-48-48-48H352 336 112 96zm80 40c4.4 0 8 3.6 8 8v40h80V256c0-4.4 3.6-8 8-8s8 3.6 8 8v40h40c4.4 0 8 3.6 8 8s-3.6 8-8 8H280v80h40c4.4 0 8 3.6 8 8s-3.6 8-8 8H280v40c0 4.4-3.6 8-8 8s-8-3.6-8-8V408H184v40c0 4.4-3.6 8-8 8s-8-3.6-8-8V408H128c-4.4 0-8-3.6-8-8s3.6-8 8-8h40V312H128c-4.4 0-8-3.6-8-8s3.6-8 8-8h40V256c0-4.4 3.6-8 8-8zm8 144h80V312H184v80z"/></svg>

<svg xmlns="http://www.w3.org/2000/svg" viewBox="0 0 448 512"><path d="M176 248C180.4 248 184 251.6 184 256V296H264V256C264 251.6 267.6 248 272 248C276.4 248 280 251.6 280 256V296H320C324.4 296 328 299.6 328 304C328 308.4 324.4 312 320 312H280V392H320C324.4 392 328 395.6 328 400C328 404.4 324.4 408 320 408H280V448C280 452.4 276.4 456 272 456C267.6 456 264 452.4 264 448V408H184V448C184 452.4 180.4 456 176 456C171.6 456 168 452.4 168 448V408H128C123.6 408 120 404.4 120 400C120 395.6 123.6 392 128 392H168V312H128C123.6 312 120 308.4 120 304C120 299.6 123.6 296 128 296H168V256C168 251.6 171.6 248 176 248zM184 392H264V312H184V392zM96 192V128C96 57.31 153.3 0 224 0C294.7 0 352 57.31 352 128V192H384C419.3 192 448 220.7 448 256V448C448 483.3 419.3 512 384 512H64C28.65 512 0 483.3 0 448V256C0 220.7 28.65 192 64 192H96zM112 192H336V128C336 66.14 285.9 16 224 16C162.1 16 112 66.14 112 128V192zM64 208C37.49 208 16 229.5 16 256V448C16 474.5 37.49 496 64 496H384C410.5 496 432 474.5 432 448V256C432 229.5 410.5 208 384 208H64z"/></svg>
